icons/op-outdent-16.svg

<svg width="16" height="16" viewBox="0 0 16 16" fill="none" xmlns="http://www.w3.org/2000/svg">
<path d="M0.21967 12.2197C0.360322 12.079 0.551088 12 0.75 12H15.25C15.4489 12 15.6397 12.079 15.7803 12.2197C15.921 12.3603 16 12.5511 16 12.75C16 12.9489 15.921 13.1397 15.7803 13.2803C15.6397 13.421 15.4489 13.5 15.25 13.5H0.75C0.551088 13.5 0.360322 13.421 0.21967 13.2803C0.0790175 13.1397 0 12.9489 0 12.75C0 12.5511 0.0790175 12.3603 0.21967 12.2197Z" fill="#1F2328"/>
<path d="M6.21967 6.21967C6.36032 6.07902 6.55109 6 6.75 6H15.25C15.4489 6 15.6397 6.07902 15.7803 6.21967C15.921 6.36032 16 6.55109 16 6.75C16 6.94891 15.921 7.13968 15.7803 7.28033C15.6397 7.42098 15.4489 7.5 15.25 7.5H6.75C6.55109 7.5 6.36032 7.42098 6.21967 7.28033C6.07902 7.13968 6 6.94891 6 6.75C6 6.55109 6.07902 6.36032 6.21967 6.21967Z" fill="#1F2328"/>
<path d="M6.21967 9.21967C6.36032 9.07902 6.55109 9 6.75 9H15.25C15.4489 9 15.6397 9.07902 15.7803 9.21967C15.921 9.36032 16 9.55109 16 9.75C16 9.94891 15.921 10.1397 15.7803 10.2803C15.6397 10.421 15.4489 10.5 15.25 10.5H6.75C6.55109 10.5 6.36032 10.421 6.21967 10.2803C6.07902 10.1397 6 9.94891 6 9.75C6 9.55109 6.07902 9.36032 6.21967 9.21967Z" fill="#1F2328"/>
<path d="M0.21967 3.21967C0.360322 3.07902 0.551088 3 0.75 3H15.25C15.4489 3 15.6397 3.07902 15.7803 3.21967C15.921 3.36032 16 3.55109 16 3.75C16 3.94891 15.921 4.13968 15.7803 4.28033C15.6397 4.42098 15.4489 4.5 15.25 4.5H0.75C0.551088 4.5 0.360322 4.42098 0.21967 4.28033C0.0790175 4.13968 0 3.94891 0 3.75C0 3.55109 0.0790175 3.36032 0.21967 3.21967Z" fill="#1F2328"/>
<path d="M3.57318 6.42678L2.17674 7.82326C2.07911 7.92089 2.07911 8.07918 2.17674 8.17681L3.57318 9.5732C3.73068 9.7307 3.99996 9.6192 3.99996 9.3965L3.99996 6.60356C3.99996 6.38083 3.73067 6.26929 3.57318 6.42678Z" fill="#24292F"/>
</svg>

<svg xmlns="http://www.w3.org/2000/svg" width="16" height="16" viewBox="0 0 16 16"><path d="M.22 12.22A.747.747 0 0 1 .75 12h14.5c.199 0 .39.079.53.22a.747.747 0 0 1 0 1.06.747.747 0 0 1-.53.22H.75a.747.747 0 0 1-.53-.22.747.747 0 0 1 0-1.06Zm6-6A.747.747 0 0 1 6.75 6h8.5c.199 0 .39.079.53.22a.747.747 0 0 1 0 1.06.747.747 0 0 1-.53.22h-8.5a.747.747 0 0 1-.53-.22.747.747 0 0 1 0-1.06Zm0 3A.747.747 0 0 1 6.75 9h8.5c.199 0 .39.079.53.22a.747.747 0 0 1 0 1.06.747.747 0 0 1-.53.22h-8.5a.747.747 0 0 1-.53-.22.747.747 0 0 1 0-1.06Zm-6-6A.747.747 0 0 1 .75 3h14.5c.199 0 .39.079.53.22a.747.747 0 0 1 0 1.06.747.747 0 0 1-.53.22H.75a.747.747 0 0 1-.53-.22.747.747 0 0 1 0-1.06Zm3.353 3.207L2.177 7.823a.25.25 0 0 0 0 .354l1.396 1.396A.25.25 0 0 0 4 9.396V6.604a.25.25 0 0 0-.427-.177Z"/></svg>
